build/img/hero/hero-btn.svg

<svg width="182" height="180" viewBox="0 0 182 180" fill="none" xmlns="http://www.w3.org/2000/svg">
<rect width="1920" height="5337" transform="translate(-1352 -653)" fill="#131313"/>
<rect x="-1352" y="-653" width="1920" height="1080" fill="#0E0E0E"/>
<path d="M47.4807 108.951C40.5972 83.2615 56.1401 56.776 82.1968 49.7941C108.254 42.8122 134.957 57.9779 141.84 83.6676C148.724 109.357 133.181 135.843 107.124 142.825C81.0676 149.807 54.3643 134.641 47.4807 108.951Z" fill="#45C1D4"/>
<path d="M114.662 173.076C114.448 173.446 114.575 173.921 114.946 174.135L120.989 177.624C121.36 177.838 121.835 177.711 122.049 177.34C122.263 176.969 122.136 176.495 121.765 176.281L116.393 173.179L119.494 167.807C119.708 167.436 119.581 166.962 119.21 166.748C118.84 166.534 118.365 166.661 118.151 167.032L114.662 173.076ZM172.167 75.5416C183.471 117.729 157.949 161.242 115.133 172.714L115.534 174.212C159.157 162.523 185.196 118.175 173.665 75.1402L172.167 75.5416Z" fill="#FCFCFC"/>
<path d="M23.7919 108.528C24.0385 110.298 23.9174 111.855 23.4285 113.201C22.9151 114.55 22.0902 115.642 20.9539 116.477L19.7446 114.541C20.5397 113.954 21.1213 113.184 21.4895 112.231C21.8331 111.281 21.9176 110.18 21.7429 108.926C21.534 107.427 21.0238 106.283 20.2124 105.495C19.3975 104.681 18.4126 104.355 17.2575 104.516C16.2008 104.663 15.4026 105.138 14.863 105.94C14.3233 106.741 14.1286 107.771 14.2787 109.027L14.551 110.981L12.8184 111.223L12.5255 109.121C12.4502 108.581 12.2342 108.11 11.8777 107.708C11.5211 107.307 11.0799 107.018 10.5542 106.841C10.0284 106.663 9.45834 106.618 8.84395 106.703C7.88551 106.837 7.15933 107.289 6.66542 108.059C6.16809 108.805 6.01019 109.829 6.19173 111.132C6.34244 112.213 6.69035 113.091 7.23547 113.767C7.75258 114.421 8.45975 114.912 9.35698 115.237L8.59197 117.298C7.38271 116.891 6.38153 116.178 5.58844 115.161C4.79191 114.12 4.28918 112.85 4.08024 111.351C3.90898 110.122 3.96887 109.024 4.25993 108.056C4.52298 107.068 4.99946 106.262 5.68937 105.64C6.35128 104.996 7.21061 104.601 8.26736 104.454C9.17666 104.327 10.0553 104.43 10.9034 104.763C11.7269 105.099 12.3901 105.633 12.8929 106.364C13.0794 105.186 13.5599 104.23 14.3344 103.495C15.1055 102.737 16.0686 102.277 17.2236 102.116C18.3787 101.955 19.4168 102.123 20.338 102.621C21.2592 103.119 22.0163 103.878 22.6094 104.897C23.2025 105.917 23.5966 107.127 23.7919 108.528Z" fill="#FCFCFC"/>
<path d="M16.3724 96.6326C15.1652 96.4875 14.172 96.0182 13.3927 95.2247C12.5887 94.4283 12.0253 93.3984 11.7023 92.1349C11.3577 90.8439 11.2817 89.3977 11.4742 87.7964C11.5867 86.8603 11.7776 85.896 12.0469 84.9037C12.3161 83.9115 12.646 83.0389 13.0364 82.2861L11.4104 82.0906C9.78447 81.8951 8.43334 82.22 7.35703 83.0653C6.28072 83.9106 5.64039 85.1832 5.43602 86.883C5.31162 87.9177 5.38578 88.9638 5.65852 90.0213C5.90958 91.0511 6.33948 92.1525 6.94823 93.3253L5.05895 94.0728C4.34775 92.7127 3.85532 91.4039 3.58165 90.1464C3.28333 88.886 3.20971 87.6275 3.36076 86.3711C3.6451 84.0061 4.54769 82.2152 6.06852 80.9985C7.58935 79.7818 9.54459 79.3171 11.9343 79.6044L20.8401 80.6752C21.185 80.7166 21.4525 80.6738 21.6427 80.5467C21.8083 80.4167 21.9227 80.193 21.9858 79.8757L23.9813 80.1156C23.9734 80.3896 23.9699 80.6266 23.9708 80.8266C23.9718 81.0267 23.954 81.1745 23.9175 81.2701C23.8188 81.883 23.5655 82.3274 23.1574 82.6032C22.7494 82.8791 22.3345 83.0041 21.9127 82.9784L20.504 82.8465C21.509 83.8421 22.2365 85.0667 22.6865 86.5203C23.1119 87.971 23.2387 89.4108 23.0669 90.8396C22.9188 92.0714 22.5253 93.1612 21.8866 94.1091C21.2261 95.0294 20.4184 95.7195 19.4634 96.1795C18.4867 96.6119 17.4564 96.7629 16.3724 96.6326ZM19.4011 83.9135C19.0887 83.6011 18.7813 83.3517 18.4788 83.1654C18.1764 82.979 17.9019 82.8711 17.6556 82.8415L14.8471 82.5038C14.4261 83.3029 14.0746 84.1479 13.7926 85.0387C13.5135 85.9048 13.3192 86.7936 13.2096 87.7052C12.9934 89.5036 13.1758 91 13.757 92.1945C14.3381 93.389 15.2446 94.0603 16.4764 94.2084C17.1908 94.2943 17.8905 94.191 18.5755 93.8985C19.2358 93.603 19.8183 93.1232 20.323 92.4591C20.8031 91.7921 21.1009 90.9781 21.2164 90.0174C21.3615 88.8102 21.2622 87.6611 20.9186 86.5702C20.5778 85.4546 20.072 84.569 19.4011 83.9135Z" fill="#FCFCFC"/>
<path d="M24.6895 77.5164L6.56469 70.6229L7.46442 68.2572L15.2222 71.2078L16.2543 68.4943L10.8119 59.4558L11.844 56.7423L18.0124 67.0127L30.2995 62.7661L29.241 65.5491L18.446 69.3279L17.4139 72.0414L25.5892 75.1507L24.6895 77.5164Z" fill="#FCFCFC"/>
<path d="M25.5049 59.7648C24.5064 59.071 23.8488 58.1911 23.532 57.125C23.1948 56.0448 23.1795 54.8709 23.486 53.6034C23.7864 52.3014 24.3967 50.9881 25.3169 49.6635C25.8549 48.8892 26.4753 48.1267 27.178 47.3762C27.8807 46.6256 28.5809 46.0093 29.2785 45.5271L27.9336 44.5927C26.5886 43.6583 25.2427 43.3123 23.8958 43.5549C22.549 43.7975 21.3871 44.6218 20.4102 46.0279C19.8156 46.8837 19.3911 47.8427 19.1366 48.9047C18.876 49.9322 18.7399 51.1066 18.7282 52.4279L16.7089 52.2033C16.7177 50.6685 16.8958 49.2815 17.2431 48.0423C17.57 46.789 18.0945 45.6427 18.8166 44.6034C20.1757 42.6472 21.8121 41.4878 23.7257 41.1253C25.6393 40.7629 27.5844 41.2683 29.561 42.6416L36.9276 47.7596C37.2129 47.9578 37.4693 48.0453 37.6969 48.0222C37.9041 47.9848 38.1099 47.8408 38.3143 47.5901L39.9649 48.7368C39.8296 48.9751 39.7155 49.1829 39.6226 49.3601C39.5297 49.5372 39.4447 49.6595 39.3677 49.7269C38.9934 50.2221 38.5614 50.4961 38.0717 50.5486C37.582 50.6012 37.1568 50.5173 36.7962 50.297L35.6135 49.5205C36.0349 50.8709 36.104 52.2936 35.8206 53.7887C35.5168 55.2696 34.9544 56.601 34.1332 57.7829C33.4253 58.8018 32.5672 59.5803 31.5588 60.1185C30.5442 60.6221 29.5073 60.8535 28.448 60.8125C27.3826 60.7369 26.4016 60.3877 25.5049 59.7648ZM34.1392 49.9465C34.0096 49.5242 33.8549 49.1598 33.6749 48.8535C33.4949 48.5472 33.3031 48.3232 33.0993 48.1817L30.7762 46.5677C30.03 47.0765 29.3236 47.6583 28.6571 48.3132C28.0048 48.9477 27.4167 49.6419 26.8929 50.3959C25.8594 51.8834 25.3195 53.291 25.2734 54.6186C25.2272 55.9461 25.7136 56.9639 26.7325 57.6718C27.3234 58.0823 27.99 58.3188 28.7322 58.3813C29.454 58.4295 30.1934 58.2786 30.9504 57.9283C31.687 57.5639 32.3314 56.9843 32.8836 56.1895C33.5773 55.191 34.0279 54.1294 34.2353 53.0045C34.4569 51.8593 34.4249 50.8399 34.1392 49.9465Z" fill="#FCFCFC"/>
<path d="M46.3788 43.1063C45.0418 44.2913 43.6776 45.0528 42.2862 45.3908C40.8783 45.7102 39.5123 45.6279 38.188 45.1438L39.1306 43.065C40.0595 43.4022 41.0227 43.4602 42.0204 43.2391C43.0016 42.9995 43.9657 42.4599 44.9128 41.6206C46.0455 40.6166 46.7157 39.5584 46.9233 38.446C47.1496 37.3171 46.8759 36.3163 46.1024 35.4435C45.3947 34.645 44.5576 34.243 43.5912 34.2375C42.6248 34.232 41.6598 34.6397 40.6963 35.4604L39.2201 36.7689L38.0598 35.4597L39.6475 34.0526C40.056 33.6905 40.3286 33.2499 40.4654 32.7308C40.6021 32.2117 40.5988 31.6842 40.4553 31.1483C40.3118 30.6123 40.0344 30.1122 39.6229 29.648C38.981 28.9238 38.2026 28.5692 37.2877 28.5844C36.3913 28.5831 35.4511 29.0186 34.4669 29.8909C33.6498 30.615 33.1109 31.3911 32.8501 32.2191C32.5913 33.0121 32.5746 33.8724 32.8 34.8L30.6603 35.3038C30.3303 34.0711 30.3692 32.843 30.7769 31.6196C31.2032 30.3797 31.9827 29.2578 33.1154 28.2538C34.0439 27.4309 34.9915 26.8728 35.9584 26.5796C36.9274 26.2513 37.8619 26.2021 38.7621 26.4321C39.6643 26.6271 40.4693 27.1239 41.177 27.9224C41.786 28.6094 42.1867 29.3982 42.3791 30.2887C42.555 31.1606 42.4776 32.0084 42.1467 32.8322C43.2313 32.3351 44.2937 32.2057 45.334 32.4442C46.3928 32.6662 47.309 33.2136 48.0825 34.0864C48.8561 34.9591 49.2905 35.9169 49.3859 36.9597C49.4812 38.0025 49.2685 39.0531 48.7477 40.1115C48.2269 41.17 47.4373 42.1682 46.3788 43.1063Z" fill="#FCFCFC"/>
<path d="M49.7388 32.2738C49.1683 31.2001 48.986 30.1168 49.1921 29.0239C49.3864 27.909 49.9098 26.8582 50.7623 25.8714C51.625 24.851 52.7685 23.9623 54.1928 23.2055C55.0254 22.7631 55.9259 22.3689 56.8941 22.023C57.8624 21.6771 58.7669 21.4493 59.6078 21.3397L58.8394 19.8935C58.0709 18.4473 57.0324 17.524 55.7237 17.1236C54.4151 16.7231 53.0048 16.9245 51.4929 17.7279C50.5726 18.2169 49.7564 18.8754 49.0443 19.7034C48.3425 20.4978 47.6842 21.4798 47.0693 22.6495L45.3765 21.5259C46.0865 20.1652 46.8793 19.0133 47.7551 18.0703C48.6192 17.1054 49.61 16.326 50.7275 15.7322C52.831 14.6145 54.8165 14.3321 56.6839 14.8853C58.5513 15.4384 60.0498 16.7777 61.1792 18.9031L65.3882 26.8242C65.5512 27.131 65.7392 27.3261 65.9522 27.4096C66.1535 27.4713 66.4024 27.4373 66.6989 27.3079L67.642 29.0827C67.4126 29.2327 67.2161 29.3652 67.0524 29.4803C66.8888 29.5954 66.7573 29.6652 66.658 29.6899C66.0986 29.9591 65.5891 30.005 65.1296 29.8277C64.6701 29.6504 64.3304 29.3813 64.1106 29.0204L63.4141 27.7889C63.1711 29.1825 62.5816 30.4791 61.6457 31.6789C60.698 32.8569 59.5888 33.7835 58.3179 34.4588C57.2223 35.0409 56.1031 35.3406 54.9602 35.3579C53.8276 35.3415 52.7997 35.0728 51.8766 34.5518C50.9637 33.9972 50.2511 33.2379 49.7388 32.2738ZM61.9082 27.4932C61.9862 27.0584 62.0153 26.6636 61.9954 26.3089C61.9755 25.9542 61.9074 25.6673 61.7909 25.4482L60.4636 22.9502C59.5672 23.0612 58.6729 23.2554 57.7807 23.5329C56.9104 23.7986 56.0698 24.1469 55.2591 24.5777C53.6595 25.4277 52.5356 26.4324 51.8872 27.5917C51.2388 28.7511 51.2057 29.8786 51.7879 30.9742C52.1255 31.6097 52.6101 32.1249 53.2415 32.52C53.8612 32.8931 54.5878 33.0971 55.4212 33.1319C56.2429 33.1449 57.0811 32.9243 57.9356 32.4702C59.0093 31.8997 59.8957 31.1618 60.5947 30.2564C61.3157 29.3394 61.7535 28.4184 61.9082 27.4932Z" fill="#FCFCFC"/>
<path d="M75.3871 26.9154L71.1477 10.3276L64.4404 12.0418L63.8782 9.84208L79.7449 5.78695L80.3071 7.98665L73.5998 9.70086L77.8392 26.2887L75.3871 26.9154Z" fill="#FCFCFC"/>
<path d="M85.9808 24.54L85.3727 5.15806L87.9024 5.0787L88.1172 11.9237L93.1394 11.7662C95.3466 11.6969 97.0262 12.2152 98.178 13.321C99.3539 14.4013 99.9706 15.8591 100.028 17.6943C100.066 18.8848 99.8514 19.9714 99.3857 20.9542C98.92 21.937 98.2125 22.7288 97.2632 23.3295C96.3386 23.9295 95.1572 24.2521 93.7187 24.2972L85.9808 24.54ZM88.4475 22.4517L93.3209 22.2988C94.3377 22.2669 95.1499 22.0429 95.7575 21.6266C96.3643 21.1855 96.8064 20.6379 97.0837 19.9837C97.3603 19.3048 97.4866 18.5809 97.4625 17.8121C97.4391 17.068 97.2813 16.3903 96.9891 15.7788C96.7208 15.1418 96.2584 14.6474 95.602 14.2956C94.9695 13.9182 94.0952 13.747 92.9792 13.7821L88.1802 13.9326L88.4475 22.4517Z" fill="#FCFCFC"/>
<path d="M117.194 28.3492C115.85 27.9099 114.692 27.2575 113.722 26.3923C112.783 25.5111 112.036 24.4837 111.479 23.3099C110.947 22.1439 110.634 20.906 110.54 19.5961C110.469 18.294 110.646 16.9943 111.07 15.6971C111.64 13.9518 112.55 12.4869 113.798 11.3026C115.047 10.1182 116.505 9.32887 118.174 8.93456C119.843 8.54024 121.586 8.63984 123.402 9.23335C125.124 9.79603 126.514 10.6941 127.573 11.9277C128.639 13.1377 129.271 14.5189 129.469 16.0714L126.891 16.0512C126.68 14.9383 126.188 13.9682 125.414 13.141C124.672 12.2979 123.734 11.6913 122.602 11.3214C121.376 10.9206 120.151 10.8728 118.929 11.1782C117.707 11.4836 116.608 12.0903 115.632 12.9984C114.681 13.9143 113.973 15.0797 113.511 16.4949C113.056 17.8864 112.95 19.2484 113.194 20.581C113.437 21.9135 113.954 23.0874 114.744 24.1029C115.543 25.0947 116.555 25.791 117.782 26.1918C118.584 26.4539 119.396 26.5629 120.22 26.5188C121.067 26.4824 121.839 26.317 122.536 26.0226C123.264 25.7123 123.815 25.305 124.188 24.8006L126.327 26.2828C125.712 27.0475 124.899 27.6565 123.89 28.1097C122.912 28.547 121.838 28.7966 120.669 28.8584C119.532 28.9043 118.373 28.7346 117.194 28.3492Z" fill="#FCFCFC"/>
<path d="M128.338 25.841C128.992 24.8155 129.844 24.1232 130.897 23.764C131.963 23.3839 133.135 23.3217 134.414 23.5773C135.727 23.8253 137.064 24.3826 138.424 25.2492C139.219 25.7558 140.006 26.3451 140.784 27.0173C141.562 27.6894 142.206 28.3644 142.715 29.0421L143.595 27.6609C144.475 26.2797 144.767 24.921 144.471 23.5849C144.175 22.2488 143.304 21.1208 141.86 20.201C140.981 19.641 140.006 19.2552 138.935 19.0435C137.898 18.8241 136.719 18.7351 135.398 18.7763L135.542 16.7496C137.076 16.697 138.469 16.8195 139.721 17.117C140.986 17.3935 142.153 17.8717 143.22 18.5516C145.229 19.8315 146.453 21.4202 146.892 23.3177C147.33 25.2153 146.903 27.1791 145.61 29.2091L140.791 36.7744C140.604 37.0674 140.527 37.3271 140.559 37.5536C140.605 37.7591 140.757 37.959 141.016 38.1533L139.936 39.8484C139.692 39.7227 139.48 39.617 139.299 39.5312C139.118 39.4455 138.993 39.3655 138.923 39.2913C138.413 38.9371 138.122 38.5163 138.05 38.0291C137.978 37.5419 138.044 37.1137 138.25 36.7446L138.979 35.5318C137.646 36.0069 136.227 36.1328 134.722 35.9094C133.23 35.6651 131.877 35.1563 130.664 34.3831C129.617 33.7165 128.805 32.8902 128.227 31.9042C127.683 30.9105 127.411 29.8836 127.409 28.8236C127.442 27.756 127.752 26.7618 128.338 25.841ZM138.494 34.0757C138.911 33.9293 139.269 33.7601 139.568 33.5681C139.866 33.376 140.083 33.1753 140.216 32.966L141.736 30.5803C141.197 29.855 140.588 29.1724 139.907 28.5327C139.247 27.9063 138.53 27.3464 137.755 26.8531C136.227 25.8799 134.799 25.3968 133.471 25.4038C132.143 25.4108 131.145 25.9375 130.479 26.9839C130.092 27.5908 129.882 28.2663 129.85 29.0103C129.83 29.7335 130.011 30.4663 130.391 31.2087C130.785 31.9301 131.39 32.5508 132.206 33.0707C133.231 33.724 134.31 34.1317 135.442 34.294C136.595 34.4697 137.613 34.3969 138.494 34.0757Z" fill="#FCFCFC"/>
<path d="M141.907 41.3501L156.199 28.2996L157.906 30.1685L146.142 40.9102L165.889 38.8562L167.42 40.5328L153.1 53.6085L151.394 51.7395L162.965 41.1736L143.563 43.1642L141.907 41.3501ZM163.662 32.7747C162.525 31.5287 161.939 30.299 161.907 29.0857C161.874 27.8723 162.306 26.8557 163.204 26.0358L164.459 27.4101C163.909 27.912 163.635 28.5319 163.637 29.2696C163.655 30.0257 164.058 30.8343 164.844 31.6955C165.614 32.5384 166.348 32.9933 167.048 33.0602C167.764 33.1454 168.441 32.9478 169.077 32.4673L170.307 33.8141C169.409 34.634 168.357 34.9726 167.152 34.83C165.947 34.6875 164.783 34.0024 163.662 32.7747Z" fill="#FCFCFC"/>
<path d="M157.248 60.7915L172.337 52.7001L169.065 46.5991L171.066 45.5261L178.806 59.9585L176.805 61.0315L173.533 54.9306L158.445 63.0219L157.248 60.7915Z" fill="#FCFCFC"/>
</svg>

<svg width="182" height="180" fill="none" xmlns="http://www.w3.org/2000/svg"><path fill="#131313" d="M-1352-653H568v5337h-1920z"/><path fill="#0E0E0E" d="M-1352-653H568V427h-1920z"/><path d="M47.48 108.951c-6.883-25.69 8.66-52.175 34.717-59.157 26.057-6.982 52.76 8.184 59.643 33.874 6.884 25.689-8.659 52.175-34.716 59.157-26.056 6.982-52.76-8.184-59.643-33.874z" fill="#45C1D4"/><path d="M114.662 173.076a.775.775 0 00.284 1.059l6.043 3.489a.776.776 0 00.776-1.343l-5.372-3.102 3.101-5.372a.775.775 0 10-1.343-.775l-3.489 6.044zm57.505-97.534c11.304 42.187-14.218 85.7-57.034 97.172l.401 1.498c43.623-11.689 69.662-56.037 58.131-99.072l-1.498.402zM23.792 108.528c.246 1.77.125 3.327-.364 4.673-.513 1.349-1.338 2.441-2.474 3.276l-1.21-1.936a5.082 5.082 0 001.745-2.31c.344-.95.429-2.051.254-3.305-.209-1.499-.72-2.643-1.53-3.431-.816-.814-1.8-1.14-2.956-.979-1.056.147-1.854.622-2.394 1.424-.54.801-.734 1.831-.584 3.087l.272 1.954-1.733.242-.293-2.102a2.63 2.63 0 00-.647-1.413 3.032 3.032 0 00-1.324-.867c-.526-.178-1.096-.223-1.71-.138-.958.134-1.685.586-2.179 1.356-.497.746-.655 1.77-.473 3.073.15 1.081.498 1.959 1.043 2.635.518.654 1.225 1.145 2.122 1.47l-.765 2.061a6.273 6.273 0 01-3.004-2.137c-.796-1.041-1.299-2.311-1.508-3.81-.171-1.229-.111-2.327.18-3.295.263-.988.74-1.794 1.43-2.416.661-.644 1.52-1.039 2.577-1.186a5.147 5.147 0 012.636.309c.824.336 1.487.87 1.99 1.601.186-1.178.667-2.134 1.441-2.869.771-.758 1.735-1.218 2.89-1.379 1.155-.161 2.193.007 3.114.505.921.498 1.678 1.257 2.271 2.276.593 1.02.988 2.23 1.183 3.631zm-7.42-11.895c-1.207-.145-2.2-.615-2.98-1.408-.803-.797-1.367-1.827-1.69-3.09-.344-1.291-.42-2.737-.228-4.339a20.4 20.4 0 01.573-2.892c.27-.992.599-1.865.99-2.618l-1.627-.195c-1.626-.196-2.977.129-4.053.974-1.076.846-1.717 2.118-1.921 3.818a8.436 8.436 0 00.223 3.138c.25 1.03.68 2.132 1.29 3.304l-1.89.748c-.711-1.36-1.204-2.67-1.477-3.927a10.716 10.716 0 01-.221-3.775c.284-2.365 1.187-4.156 2.708-5.372 1.52-1.217 3.476-1.682 5.865-1.395l8.906 1.071c.345.042.613-.001.803-.128.165-.13.28-.354.343-.671l1.995.24c-.008.274-.011.51-.01.71 0 .2-.017.349-.053.444-.1.613-.352 1.057-.76 1.333-.409.276-.824.401-1.245.375l-1.409-.131c1.005.995 1.732 2.22 2.182 3.673.426 1.451.553 2.89.38 4.32-.147 1.231-.54 2.321-1.18 3.27-.66.92-1.468 1.61-2.423 2.07a5.791 5.791 0 01-3.09.453zm3.03-12.72a5.128 5.128 0 00-.923-.748c-.303-.186-.577-.294-.823-.324l-2.809-.337c-.42.799-.772 1.644-1.054 2.535-.28.866-.474 1.755-.583 2.666-.217 1.799-.034 3.295.547 4.49.581 1.194 1.488 1.865 2.72 2.013a4.034 4.034 0 002.099-.31c.66-.295 1.242-.775 1.747-1.439.48-.667.778-1.48.893-2.442.145-1.207.046-2.356-.297-3.447-.341-1.115-.847-2.001-1.518-2.656zm5.288-6.397L6.564 70.623l.9-2.366 7.757 2.95 1.032-2.713-5.442-9.038 1.032-2.714 6.168 10.27L30.3 62.767l-1.058 2.783-10.795 3.779-1.032 2.713 8.175 3.11-.9 2.365zm.815-17.751c-.999-.694-1.656-1.574-1.973-2.64-.337-1.08-.352-2.254-.046-3.522.3-1.302.91-2.615 1.83-3.94a20.318 20.318 0 011.862-2.287c.703-.75 1.403-1.367 2.1-1.849l-1.344-.934c-1.345-.935-2.691-1.28-4.038-1.038-1.347.242-2.509 1.067-3.486 2.473a8.437 8.437 0 00-1.273 2.877c-.261 1.027-.397 2.202-.409 3.523l-2.02-.225c.01-1.535.188-2.922.535-4.16.327-1.254.852-2.4 1.574-3.44 1.359-1.956 2.995-3.115 4.909-3.478 1.913-.362 3.858.143 5.835 1.517l7.367 5.118c.285.198.541.285.769.262.207-.037.413-.181.617-.432l1.65 1.147c-.134.238-.248.446-.341.623-.093.177-.178.3-.255.367-.375.495-.807.77-1.296.822-.49.052-.915-.032-1.276-.252l-1.182-.776c.42 1.35.49 2.773.207 4.268-.304 1.48-.867 2.812-1.688 3.994-.708 1.019-1.566 1.797-2.574 2.335-1.015.504-2.052.735-3.111.694a5.793 5.793 0 01-2.943-1.047zm8.634-9.819a5.126 5.126 0 00-.464-1.093c-.18-.306-.372-.53-.576-.671l-2.323-1.614a15.402 15.402 0 00-2.119 1.745 14.2 14.2 0 00-1.764 2.083c-1.034 1.487-1.573 2.895-1.62 4.223-.046 1.327.44 2.345 1.46 3.053a4.04 4.04 0 002 .71c.721.047 1.46-.103 2.217-.454.737-.364 1.381-.944 1.934-1.738.693-.999 1.144-2.06 1.351-3.185.222-1.146.19-2.165-.096-3.059zm12.24-6.84c-1.337 1.185-2.701 1.947-4.093 2.285-1.408.32-2.774.237-4.098-.247l.943-2.079a5.081 5.081 0 002.89.174c.98-.24 1.945-.78 2.892-1.618 1.133-1.004 1.803-2.063 2.01-3.175.227-1.129-.047-2.13-.82-3.002-.708-.799-1.545-1.201-2.512-1.207-.966-.005-1.931.403-2.895 1.223l-1.476 1.31-1.16-1.31 1.587-1.406c.409-.362.682-.803.818-1.322a3.033 3.033 0 00-.01-1.583 3.693 3.693 0 00-.832-1.5c-.642-.724-1.42-1.079-2.335-1.064-.897 0-1.837.435-2.821 1.307-.817.724-1.356 1.5-1.617 2.328-.259.793-.275 1.653-.05 2.581l-2.14.504a6.278 6.278 0 01.117-3.684c.426-1.24 1.206-2.362 2.338-3.366.929-.823 1.877-1.381 2.843-1.674.97-.329 1.904-.378 2.804-.148.902.195 1.707.692 2.415 1.49a5.152 5.152 0 011.202 2.367c.176.872.099 1.72-.232 2.543 1.084-.497 2.147-.626 3.187-.388 1.059.222 1.975.77 2.748 1.642.774.873 1.209 1.83 1.304 2.874.095 1.042-.117 2.093-.638 3.151-.521 1.059-1.31 2.057-2.37 2.995zm3.36-10.832c-.57-1.074-.753-2.157-.547-3.25.194-1.115.718-2.166 1.57-3.153.863-1.02 2.007-1.909 3.43-2.665a20.317 20.317 0 012.702-1.183c.968-.346 1.873-.574 2.714-.683l-.769-1.447c-.768-1.446-1.807-2.369-3.115-2.77-1.309-.4-2.72-.199-4.231.605a8.435 8.435 0 00-2.449 1.975c-.701.795-1.36 1.777-1.975 2.947l-1.693-1.124c.71-1.36 1.503-2.513 2.38-3.456a10.717 10.717 0 012.971-2.338c2.104-1.117 4.09-1.4 5.957-.847 1.867.553 3.366 1.893 4.495 4.018l4.21 7.921c.162.307.35.502.563.586.201.061.45.027.747-.102l.943 1.775c-.23.15-.426.282-.59.397a1.312 1.312 0 01-.394.21c-.56.27-1.069.315-1.528.138-.46-.178-.8-.447-1.02-.808l-.696-1.231c-.243 1.393-.832 2.69-1.768 3.89-.948 1.178-2.057 2.104-3.328 2.78-1.096.582-2.215.882-3.358.899-1.132-.016-2.16-.285-3.083-.806a5.791 5.791 0 01-2.138-2.278zm12.17-4.78c.077-.436.106-.83.086-1.185-.02-.355-.088-.642-.204-.86l-1.327-2.499c-.897.111-1.791.305-2.683.583-.87.266-1.711.614-2.522 1.045-1.6.85-2.723 1.854-3.372 3.014-.648 1.16-.681 2.287-.1 3.382.339.636.823 1.15 1.455 1.546.62.373 1.346.577 2.18.612.82.013 1.66-.208 2.514-.662 1.073-.57 1.96-1.308 2.659-2.214.72-.917 1.159-1.838 1.313-2.763zm13.478-.579l-4.24-16.587-6.707 1.714-.562-2.2 15.867-4.055.562 2.2L73.6 9.7l4.24 16.588-2.453.626zM85.98 24.54l-.607-19.382 2.53-.08.214 6.846 5.022-.158c2.208-.07 3.887.45 5.039 1.555 1.176 1.08 1.793 2.538 1.85 4.373.038 1.19-.177 2.277-.642 3.26a5.613 5.613 0 01-2.123 2.375c-.924.6-2.106.923-3.544.968l-7.738.243zm2.468-2.088l4.873-.153c1.017-.032 1.829-.256 2.436-.672a3.88 3.88 0 001.327-1.643 5.255 5.255 0 00.379-2.172 5.03 5.03 0 00-.474-2.033c-.268-.637-.73-1.132-1.387-1.483-.633-.378-1.507-.549-2.623-.514l-4.799.15.267 8.52zm28.746 5.898c-1.344-.44-2.502-1.093-3.472-1.958a10.16 10.16 0 01-2.243-3.082 10.721 10.721 0 01-.939-3.714 10.599 10.599 0 01.53-3.899c.57-1.745 1.48-3.21 2.728-4.394a9.39 9.39 0 014.376-2.368c1.669-.395 3.412-.295 5.228.298 1.722.563 3.112 1.461 4.171 2.695 1.066 1.21 1.698 2.59 1.896 4.143l-2.578-.02a5.742 5.742 0 00-1.477-2.91c-.742-.843-1.68-1.45-2.812-1.82a6.516 6.516 0 00-3.673-.143c-1.222.306-2.321.912-3.297 1.82-.951.916-1.659 2.082-2.121 3.497-.455 1.391-.561 2.753-.317 4.086.243 1.332.76 2.506 1.55 3.522a6.348 6.348 0 003.038 2.089 6.64 6.64 0 002.438.327c.847-.037 1.619-.202 2.316-.496.728-.31 1.279-.718 1.652-1.222l2.139 1.482c-.615.764-1.428 1.373-2.437 1.827-.978.437-2.052.687-3.221.748-1.137.046-2.296-.123-3.475-.509zm11.144-2.509c.654-1.026 1.506-1.718 2.559-2.077 1.066-.38 2.238-.442 3.517-.187 1.313.248 2.65.806 4.01 1.672a20.326 20.326 0 012.36 1.768c.778.672 1.422 1.347 1.931 2.025l.88-1.381c.88-1.381 1.172-2.74.876-4.076-.296-1.336-1.167-2.464-2.611-3.384a8.434 8.434 0 00-2.925-1.157c-1.037-.22-2.216-.309-3.537-.268l.144-2.026c1.534-.053 2.927.07 4.179.367 1.265.276 2.432.755 3.499 1.435 2.009 1.28 3.233 2.868 3.672 4.766.438 1.897.011 3.861-1.282 5.891l-4.819 7.565c-.187.293-.264.553-.232.78.046.205.198.405.457.6l-1.08 1.694a21.976 21.976 0 00-.637-.317 1.288 1.288 0 01-.376-.24c-.51-.354-.801-.775-.873-1.262-.072-.487-.006-.915.2-1.284l.729-1.213c-1.333.475-2.752.6-4.257.377-1.492-.244-2.845-.753-4.058-1.526-1.047-.666-1.859-1.493-2.437-2.479-.544-.994-.816-2.02-.818-3.08a5.798 5.798 0 01.929-2.983zm10.156 8.235a5.134 5.134 0 001.074-.508c.298-.192.515-.393.648-.602l1.52-2.386a15.451 15.451 0 00-1.829-2.047 14.172 14.172 0 00-2.152-1.68c-1.528-.973-2.956-1.456-4.284-1.45-1.328.008-2.326.535-2.992 1.58a4.023 4.023 0 00-.629 2.027c-.02.723.161 1.456.541 2.199.394.721.999 1.342 1.815 1.862a8.13 8.13 0 003.236 1.223c1.153.176 2.171.103 3.052-.218zm3.413 7.274l14.292-13.05 1.707 1.869-11.764 10.741 19.747-2.054 1.531 1.677-14.32 13.075-1.706-1.868 11.571-10.566-19.402 1.99-1.656-1.814zm21.755-8.575c-1.137-1.246-1.723-2.476-1.755-3.69-.033-1.213.399-2.23 1.297-3.05l1.255 1.375a2.408 2.408 0 00-.822 1.86c.018.756.421 1.564 1.207 2.425.77.843 1.504 1.298 2.204 1.365.716.085 1.393-.112 2.029-.593l1.23 1.347c-.898.82-1.95 1.159-3.155 1.016-1.205-.142-2.369-.828-3.49-2.055zm-6.414 28.016l15.089-8.09-3.272-6.102 2.001-1.073 7.74 14.432-2.001 1.074-3.272-6.101-15.088 8.09-1.197-2.23z" fill="#FCFCFC"/></svg>
